X:1
T:The Rains Of Castamere (Lannister Song)
T:Music By Ramin Djawadi (Celtic/Bardic HARP Adaptation by Rossella De Falco)
T:The Rains Of Castamere (Lannister Song)
T:©
T:©
C:Music By Ramin Djawadi, Celtic Harp Adaptation Rossella De Falco
Z:©
%%score { 1 | 2 }
L:1/8
M:4/4
K:F
V:1 treble nm="Harp" snm="Hp."
V:2 bass 
V:1
 z4 z2 z A |"Dm" f3 A"C" e3 A |"Dm" f2 !arpeggio![Adg]2"C" e3 A |"Dm" g2 f2 e2 d2 | %4
"C" !arpeggio![EGce]4 z2 z a |"F" a3 b"C" g2 cc |"F" a2 b2"C" g3 d |"Gm" b2 a2 g2 f2 | %8
"C" !arpeggio![EGce]4 z2 z A |"Dm" [Ff]3 A"C" [Ee]3 A |"Dm" [Ff]2 [Gg]2"C" [Ee]3 A | %11
"Dm" g2 f2 e2 d2 |"C" !arpeggio![EGce]4 z2 z a |"F" a3 b"C" g2 cc |"F" a2 b2"C" g3 d | %15
"Gm" b2 a2"Am" g2 f2 |"Dm" !arpeggio![FAd]4 z2 A2 |"Dm" ef d4 f2 |"C" fe A4 A2 |"Dm" ef d4 f2 | %20
"C" f e3 z2 A2 |"B" ef d4 a2 |"Gm" !arpeggio![Bda]2 g2 d3 e |"B" f3 d"Am" e3 c |"Dm" d4 z2 A2 | %25
"B" ef d4 a2 |"Gm" !arpeggio![Bda]2 g2 d3 e |"B" f3 d"Am" gfef |"Dm" !arpeggio![FAd]4 z4 |] %29
V:2
 z8 | D,A, D2 C,G, C2 | D,A, D2 C,G, C2 | D,A,DE F2 z2 | C,G,CD E2 z2 | F,C F2 C,G, C2 | %6
 F,C F2 C,G, C2 | G,DGA B2 z2 | C,G,CD E2 z2 | D,A, D2 C,G, C2 | D,A, D2 C,G, C2 | D,A,DE F2 z2 | %12
 C,G,CD E2 z2 | F,C F2 C,G, C2 | F,C F2 C,G, C2 | G,D G2 A,E A2 | D,A,DE F2 z2 | D,A,DE F2 z2 | %18
 C,G,CD E2 z2 | D,A,DE F2 z2 | C,G,CD E2 z2 | B,FBA G2 z2 | G,DGA B2 z2 | B,F B2 A,E A2 | %24
 D,A,DE F2 z2 | B,FBA G2 z2 | G,DGA B2 z2 | B,F B2 A,E A2 | D,A,DE F2 z2 |] %29

